-----BEGIN PGP PUBLIC KEY BLOCK-----
Comment: ED20 B635 4EE4 526D 01F8  3B53 8B6E 3BF4 5C71 4ECA
Comment: Aevust <edu@aevust.org>
Comment: Aevust <info@rincoin.org>
Comment: Aevust | Legatus <info@rincoin.org>

xjMEaWikTBYJKwYBBAHaRw8BAQdAqg/bk9ZCLBWSbI4x3rGepYxwnqbsb47v29a9
6jtPQtvNF0FldnVzdCA8ZWR1QGFldnVzdC5vcmc+wrUEExYKAF0WIQTtILY1TuRS
bQH4O1OLbjv0XHFOygUCaeeFuRsUgAAAAAAEAA5tYW51MiwyLjUrMS4xMiwyLDEC
GwMFCQWkn+QFCwkIBwICIgIGFQoJCAsCBBYCAwECHgcCF4AACgkQi2479FxxTsqq
6AEAyO0KzUUhFaQP+wmBBq+iOq7oxLcHKdqABn562nwYy2YBAIBHOl2TDJhybARS
omODGd4v9/uRDoqXvRESlg3WtykNzRlBZXZ1c3QgPGluZm9AcmluY29pbi5vcmc+
wpkEExYKAEEWIQTtILY1TuRSbQH4O1OLbjv0XHFOygUCadkoVwIbAwUJBaSf5AUL
CQgHAgIiAgYVCgkICwIEFgIDAQIeBwIXgAAKCRCLbjv0XHFOylh4AQDEZAl4x5kA
k+tf1rzso5jsorJXR1JrManqAjvdm4aUfgEAq3q1jSAaREg89NOBKVo7wHLtb9Xq
FQfp4SprQrIWMQ/NI0FldnVzdCB8IExlZ2F0dXMgPGluZm9AcmluY29pbi5vcmc+
wpkEExYKAEEWIQTtILY1TuRSbQH4O1OLbjv0XHFOygUCaWikTAIbAwUJBaSf5AUL
CQgHAgIiAgYVCgkICwIEFgIDAQIeBwIXgAAKCRCLbjv0XHFOyhDPAP0WHVUlNEZU
R085BlRvtCOhEehjwt7wEaSJdTY7nG3wAQEA+0xpM6bY6OueM+2rSfh6oo+JgJu+
WjHlYQgIHVmcoQrOMwRqPlPFFgkrBgEEAdpHDwEBB0B5cODe01ENALZEa/VP4fTU
4gxaFuvwUPrd0SzlWKeuL8LAUQQYFgoAQhYhBO0gtjVO5FJtAfg7U4tuO/RccU7K
BQJqPlPFGxSAAAAAAAQADm1hbnUyLDIuNSsxLjEyLDIsMQIbAgUJBM5HqwCBCRCL
bjv0XHFOynYgBBkWCgAdFiEEDtmcRrIZLjdTge9Kxb74qfoGwW8FAmo+U8UACgkQ
xb74qfoGwW8QTgD/RtclOxuD71vay2zEI1TBPy2PG2sL8KFUt1zyWcsVCU4A/RlI
p0UG4YVpRJcEN1LB63InLZSn3qPIonLQEWlypEkOoC0BAI14AtDvA+ziYjnuMEwM
YRVqQ9Z3hJT/yzwHCsdibgD+AQDFAdItGCxg5IUFg0SeQn6RcCNV7AajmyacAU3l
5977B844BGlopEwSCisGAQQBl1UBBQEBB0DlqxvjpfFEoUmwgJpG/IBukZRd1Lem
Jag8uga0WDuLbwMBCAfCfgQYFgoAJhYhBO0gtjVO5FJtAfg7U4tuO/RccU7KBQJp
aKRMAhsMBQkFpJ/kAAoJEItuO/RccU7KfkMA/1DGqI8/NdE4Ig26crv2mbmC9j2m
DuhNg1+aUcgilQwlAP9fW1FawXzbeELhidQBAN7xwsO5tbpDXUoEjXUG5UZbAg==
=yM0p
-----END PGP PUBLIC KEY BLOCK-----
